SVG/step-forward.svg

<?xml version="1.0" encoding="utf-8"?>
<!-- Generated by IcoMoon.io -->
<!DOCTYPE svg PUBLIC "-//W3C//DTD SVG 1.1//EN" "http://www.w3.org/Graphics/SVG/1.1/DTD/svg11.dtd">
<svg version="1.1" xmlns="http://www.w3.org/2000/svg" xmlns:xlink="http://www.w3.org/1999/xlink" width="8" height="14" viewBox="0 0 8 14">
<path fill="#444444" d="M0.352 12.898q-0.148 0.148-0.25 0.102t-0.102-0.25v-11.5q0-0.203 0.102-0.25t0.25 0.102l5.547 5.547q0.062 0.062 0.102 0.148v-5.297q0-0.203 0.148-0.352t0.352-0.148h1q0.203 0 0.352 0.148t0.148 0.352v11q0 0.203-0.148 0.352t-0.352 0.148h-1q-0.203 0-0.352-0.148t-0.148-0.352v-5.297q-0.039 0.078-0.102 0.148z"></path>
</svg>

<svg xmlns="http://www.w3.org/2000/svg" viewBox="0 0 8 14"><path d="M.352 12.898q-.148.148-.25.102T0 12.75V1.25Q0 1.047.102 1t.25.102L5.9 6.65q.06.06.1.147V1.5q0-.203.15-.352T6.5 1h1q.204 0 .353.148T8 1.5v11q0 .203-.147.352T7.5 13h-1q-.202 0-.35-.148T6 12.5V7.203q-.038.078-.1.148z" /></svg>
